common/src/main/resources/glyphs/plugins/postcss/custom_selectors.svg

<svg xmlns="http://www.w3.org/2000/svg" width="16" height="16" data-big="true" viewBox="0 0 24 24"><path fill="#E57373" d="M10.76 8.69a.76.76 0 0 0-.76.76V20.9c0 .42.34.76.76.76.19 0 .35-.06.48-.16l1.91-1.55 1.66 3.62c.13.27.4.43.69.43.11 0 .22 0 .33-.08l2.76-1.28c.38-.18.56-.64.36-1.01L17.28 18l2.41-.45a.9.9 0 0 0 .43-.26c.27-.32.23-.79-.12-1.08l-8.74-7.35-.01.01a.76.76 0 0 0-.49-.18M15 10V8h5v2zm-1.17-5.24 2.83-2.83 1.41 1.41-2.83 2.83zM10 0h2v5h-2zM3.93 14.66l2.83-2.83 1.41 1.41-2.83 2.83zm0-11.32 1.41-1.41 2.83 2.83-1.41 1.41zM7 10H2V8h5z"/></svg>

<!--
  - The MIT License (MIT)
  -
  - Copyright (c) 2015-2024 Elior "Mallowigi" Boukhobza
  -
  - Permission is hereby granted, free of charge, to any person obtaining a copy
  - of this software and associated documentation files (the "Software"), to deal
  - in the Software without restriction, including without limitation the rights
  - to use, copy, modify, merge, publish, distribute, sublicense, and/or sell
  - copies of the Software, and to permit persons to whom the Software is
  - furnished to do so, subject to the following conditions:
  -
  - The above copyright notice and this permission notice shall be included in all
  - copies or substantial portions of the Software.
  -
  - THE SOFTWARE IS PROVIDED "AS IS", WITHOUT WARRANTY OF ANY KIND, EXPRESS OR
  - IMPLIED, INCLUDING BUT NOT LIMITED TO THE WARRANTIES OF MERCHANTABILITY,
  - FITNESS FOR A PARTICULAR PURPOSE AND NONINFRINGEMENT. IN NO EVENT SHALL THE
  - AUTHORS OR COPYRIGHT HOLDERS BE LIABLE FOR ANY CLAIM, DAMAGES OR OTHER
  - LIABILITY, WHETHER IN AN ACTION OF CONTRACT, TORT OR OTHERWISE, ARISING FROM,
  - OUT OF OR IN CONNECTION WITH THE SOFTWARE OR THE USE OR OTHER DEALINGS IN THE
  - SOFTWARE.
  -->


<svg data-big="true" xmlns="http://www.w3.org/2000/svg" version="1.1" width="16px" height="16px" viewBox="0 0 24 24">
  <path fill="#E57373"
        d="M10.76,8.69A0.76,0.76 0 0,0 10,9.45V20.9C10,21.32 10.34,21.66 10.76,21.66C10.95,21.66 11.11,21.6 11.24,21.5L13.15,19.95L14.81,23.57C14.94,23.84 15.21,24 15.5,24C15.61,24 15.72,24 15.83,23.92L18.59,22.64C18.97,22.46 19.15,22 18.95,21.63L17.28,18L19.69,17.55C19.85,17.5 20,17.43 20.12,17.29C20.39,16.97 20.35,16.5 20,16.21L11.26,8.86L11.25,8.87C11.12,8.76 10.95,8.69 10.76,8.69M15,10V8H20V10H15M13.83,4.76L16.66,1.93L18.07,3.34L15.24,6.17L13.83,4.76M10,0H12V5H10V0M3.93,14.66L6.76,11.83L8.17,13.24L5.34,16.07L3.93,14.66M3.93,3.34L5.34,1.93L8.17,4.76L6.76,6.17L3.93,3.34M7,10H2V8H7V10"/>
</svg>
